public/assets/img/casestudies/recupera/portfolio_poster.svg

<svg fill="none" height="558" viewBox="0 0 558 558" width="558" xmlns="http://www.w3.org/2000/svg" xmlns:xlink="http://www.w3.org/1999/xlink"><clipPath id="a"><path d="m0 0h558v558h-558z"/></clipPath><g clip-path="url(#a)"><path clip-rule="evenodd" d="m99.6189 0h-99.6189v320l184.15-184.15c65.639-65.6389 172.061-65.6389 237.7 0 65.64 65.64 65.64 172.062 0 237.701l-184.449 184.449h99.317l95.879-100.187c16.801-17.557 44.351-17.86 61.534-.676 17.183 17.183 17.493 45.345.691 62.901l-36.329 37.962h99.507v-117.941c-12.655 1.563-25.867-2.545-35.691-12.369-17.183-17.183-17.493-45.345-.691-62.901 9.851-10.294 23.397-14.656 36.382-13.041v-351.748h-336.606l-108.581 113.461c-16.8014 17.556-44.3513 17.859-61.5345.676-17.1832-17.1832-17.4927-45.3452-.6912-62.9017z" fill="#7368f8" fill-rule="evenodd"/></g></svg>

<svg width="558" height="558" viewBox="0 0 558 558" fill="none" xmlns="http://www.w3.org/2000/svg">
<g clip-path="url(#clip0_2352_177568)">
<path fill-rule="evenodd" clip-rule="evenodd" d="M99.6189 0H0V320L184.15 135.85C249.789 70.2111 356.211 70.2111 421.85 135.85C487.49 201.49 487.49 307.912 421.85 373.551L237.401 558H336.718L432.597 457.813C449.398 440.256 476.948 439.953 494.131 457.137C511.314 474.32 511.624 502.482 494.822 520.038L458.493 558H558V440.059C545.345 441.622 532.133 437.514 522.309 427.69C505.126 410.507 504.816 382.345 521.618 364.789C531.469 354.495 545.015 350.133 558 351.748V0H221.394L112.813 113.461C96.0116 131.017 68.4617 131.32 51.2785 114.137C34.0953 96.9538 33.7858 68.7918 50.5873 51.2353L99.6189 0Z" fill="#7368F8"/>
</g>
<defs>
<clipPath id="clip0_2352_177568">
<rect width="558" height="558" fill="white"/>
</clipPath>
</defs>
</svg>
